X: 2324
T: Bag Of Potatoes, The
R: reel
M: 4/4
K: Dmajor
|:A|FA ~A2 GB ~B2|FAAF (3EFE DE|FA (3AAA GB (3ABc|defd (3efe d:|
|:A|defd Be ~e2|d2 (3fed B2 (3ABc|df ~f2 ce ~e2|dBAF (3EFE D:|

